packages/icons/src/svg/logo-mc.svg

<svg xmlns="http://www.w3.org/2000/svg" viewBox="0 0 32 32">
  <path d="M19.072,15.67914H16.321V12.92749H18.641A10.84826,10.84826,0,0,1,19.072,15.67914Zm-6.29779,0H15.679V12.92749H13.20526A10.84427,10.84427,0,0,0,12.77423,15.67914Zm4.22742-5.95721a6.4037,6.4037,0,0,0-.6806-.07043v2.655h2.115A9.22591,9.22591,0,0,0,17.00165,9.72192Zm-3.79828,9.3443H15.679V16.32129H12.77423A10.84479,10.84479,0,0,0,13.20337,19.06622Zm.20721-6.7597H15.679V9.65106a6.42507,6.42507,0,0,0-.85889.10278A9.24263,9.24263,0,0,0,13.41058,12.30652Zm1.40979,9.94012a6.4193,6.4193,0,0,0,.85858.10272V19.68719H13.40814A9.23931,9.23931,0,0,0,14.82037,22.24664Zm-2.66779-5.92535H9.65106a6.31253,6.31253,0,0,0,.782,2.74493h2.12427A11.509,11.509,0,0,1,12.15259,16.32129Zm.40656-3.3938H10.43689a6.31165,6.31165,0,0,0-.78583,2.75165h2.50153A11.50783,11.50783,0,0,1,12.55914,12.92749ZM31,16.00037V31H15.99969A14.99982,14.99982,0,1,1,31,16.00037Zm-3,.00024a1.37668,1.37668,0,0,0-1.0506-1.33392A11.02307,11.02307,0,0,0,17.358,5.1095a1.38,1.38,0,0,0-2.70715.00323A11.02331,11.02331,0,0,0,5.087,14.65558a1.375,1.375,0,0,0-.0047,2.688,11.02352,11.02352,0,0,0,9.57617,9.5777,1.3791,1.3791,0,0,0,2.69135.00348,11.02284,11.02284,0,0,0,9.60376-9.59229A1.37563,1.37563,0,0,0,28,16.00061ZM10.82532,19.68719a6.38759,6.38759,0,0,0,3.04327,2.30225,10.09038,10.09038,0,0,1-1.1214-2.30225ZM17.933,9.94373a10.07787,10.07787,0,0,1,1.16309,2.36279h2.07452A6.38352,6.38352,0,0,0,17.933,9.94373Zm1.139,6.37756H16.321v2.74493h2.3219A10.85107,10.85107,0,0,0,19.072,16.32129Zm7.1275.98486A10.27084,10.27084,0,0,1,17.304,26.17493a1.51944,1.51944,0,0,0-1.29694-.95154,1.41783,1.41783,0,0,0-1.301.94867A10.27123,10.27123,0,0,1,5.834,17.2959a1.36862,1.36862,0,0,0,.00409-2.59A10.27122,10.27122,0,0,1,14.716,5.86029a1.37534,1.37534,0,0,0,2.57855-.00323,10.27156,10.27156,0,0,1,8.90088,8.83862,1.36763,1.36763,0,0,0,.00409,2.61047ZM23,16.00018a7,7,0,1,0-7,7A7.0079,7.0079,0,0,0,23,16.00018Zm-3.30634-.321H22.349a6.31253,6.31253,0,0,0-.78589-2.75165H19.28723A11.50516,11.50516,0,0,1,19.69366,15.67914Zm-5.82562-5.668a6.38757,6.38757,0,0,0-3.0379,2.29535h1.91919A10.09505,10.09505,0,0,1,13.868,10.01117Zm5.42126,9.05505h2.2774a6.31306,6.31306,0,0,0,.78229-2.74493H19.69366A11.50573,11.50573,0,0,1,19.28931,19.06622Zm-2.96826.621v2.66174a6.40943,6.40943,0,0,0,.68024-.07037,9.22507,9.22507,0,0,0,1.43719-2.59137Zm1.61182,2.36957a6.38331,6.38331,0,0,0,3.24237-2.36957h-2.0769A10.07706,10.07706,0,0,1,17.93286,22.05676Z"/>
</svg>

<svg xmlns="http://www.w3.org/2000/svg" viewBox="0 0 32 32">
	<path d="M19.072 15.68h-2.751v-2.753h2.32a10.848 10.848 0 0 1 .431 2.752zm-6.298 0h2.905v-2.753h-2.474a10.844 10.844 0 0 0-.43 2.752zm4.228-5.958a6.404 6.404 0 0 0-.681-.07v2.655h2.115a9.226 9.226 0 0 0-1.434-2.585zm-3.799 9.344h2.476v-2.745h-2.905a10.845 10.845 0 0 0 .43 2.745zm.208-6.76h2.268V9.652a6.425 6.425 0 0 0-.859.103 9.243 9.243 0 0 0-1.41 2.553zm1.41 9.94a6.42 6.42 0 0 0 .858.103v-2.662h-2.27a9.24 9.24 0 0 0 1.411 2.56zm-2.668-5.925H9.65a6.313 6.313 0 0 0 .782 2.745h2.124a11.509 11.509 0 0 1-.404-2.745zm.406-3.394h-2.122a6.312 6.312 0 0 0-.786 2.752h2.502a11.508 11.508 0 0 1 .406-2.752zM31 16v15H16a15 15 0 1 1 15-15zm-3 0a1.377 1.377 0 0 0-1.05-1.333 11.023 11.023 0 0 0-9.592-9.557 1.38 1.38 0 0 0-2.707.003 11.023 11.023 0 0 0-9.564 9.543 1.375 1.375 0 0 0-.005 2.688 11.024 11.024 0 0 0 9.576 9.577 1.38 1.38 0 0 0 2.692.004 11.023 11.023 0 0 0 9.604-9.593A1.376 1.376 0 0 0 28 16.001zm-17.175 3.687a6.388 6.388 0 0 0 3.044 2.302 10.09 10.09 0 0 1-1.122-2.302zm7.108-9.743a10.078 10.078 0 0 1 1.163 2.363h2.075a6.384 6.384 0 0 0-3.238-2.363zm1.139 6.377h-2.751v2.745h2.322a10.851 10.851 0 0 0 .429-2.745zm7.128.985a10.27 10.27 0 0 1-8.896 8.869 1.52 1.52 0 0 0-1.297-.952 1.418 1.418 0 0 0-1.3.95 10.271 10.271 0 0 1-8.873-8.877 1.369 1.369 0 0 0 .004-2.59 10.271 10.271 0 0 1 8.878-8.846 1.375 1.375 0 0 0 2.579-.003 10.272 10.272 0 0 1 8.9 8.839 1.368 1.368 0 0 0 .005 2.61zM23 16a7 7 0 1 0-7 7 7.008 7.008 0 0 0 7-7zm-3.306-.32h2.655a6.313 6.313 0 0 0-.786-2.752h-2.276a11.505 11.505 0 0 1 .407 2.751zm-5.826-5.669a6.388 6.388 0 0 0-3.038 2.296h1.92a10.095 10.095 0 0 1 1.118-2.296zm5.421 9.055h2.278a6.313 6.313 0 0 0 .782-2.745h-2.655a11.506 11.506 0 0 1-.405 2.745zm-2.968.621v2.662a6.41 6.41 0 0 0 .68-.07 9.225 9.225 0 0 0 1.437-2.592zm1.612 2.37a6.383 6.383 0 0 0 3.242-2.37h-2.077a10.077 10.077 0 0 1-1.165 2.37z"/>
</svg>
